files/resources/svgs/general/o-beaker.svg

<svg width="24" height="24" viewBox="0 0 24 24" fill="none" xmlns="http://www.w3.org/2000/svg">
<path d="M9.75001 3.10408V8.81802C9.75001 9.41476 9.51295 9.98705 9.091 10.409L5.00001 14.5M9.75001 3.10408C9.49886 3.12743 9.24884 3.15465 9.00001 3.18568M9.75001 3.10408C10.4908 3.03521 11.2413 3 12 3C12.7587 3 13.5093 3.03521 14.25 3.10408M14.25 3.10408V8.81802C14.25 9.41476 14.4871 9.98705 14.909 10.409L19.8 15.3M14.25 3.10408C14.5011 3.12743 14.7512 3.15465 15 3.18568M19.8 15.3L18.2299 15.6925C16.1457 16.2136 13.9216 15.9608 12 15C10.0784 14.0392 7.85435 13.7864 5.7701 14.3075L5.00001 14.5M19.8 15.3L21.2022 16.7022C22.4341 17.9341 21.8527 20.0202 20.1354 20.3134C17.4911 20.7649 14.773 21 12 21C9.227 21 6.50891 20.7649 3.86459 20.3134C2.14728 20.0202 1.56591 17.9341 2.7978 16.7022L5.00001 14.5" stroke="#0F172A" stroke-width="1.5" stroke-linecap="round" stroke-linejoin="round"/>
</svg>

<svg xmlns="http://www.w3.org/2000/svg" fill="none" viewBox="0 0 24 24" stroke-width="1.5" stroke="currentColor" aria-hidden="true">
  <path stroke-linecap="round" stroke-linejoin="round" d="M9.75 3.104v5.714a2.25 2.25 0 01-.659 1.591L5 14.5M9.75 3.104c-.251.023-.501.05-.75.082m.75-.082a24.301 24.301 0 014.5 0m0 0v5.714c0 .597.237 1.17.659 1.591L19.8 15.3M14.25 3.104c.251.023.501.05.75.082M19.8 15.3l-1.57.393A9.065 9.065 0 0112 15a9.065 9.065 0 00-6.23-.693L5 14.5m14.8.8l1.402 1.402c1.232 1.232.65 3.318-1.067 3.611A48.309 48.309 0 0112 21c-2.773 0-5.491-.235-8.135-.687-1.718-.293-2.3-2.379-1.067-3.61L5 14.5"/>
</svg>
